src/images/logo.svg

<svg width="38" height="38" viewBox="0 0 38 38" fill="none" xmlns="http://www.w3.org/2000/svg">
<path fill-rule="evenodd" clip-rule="evenodd" d="M19 38C29.4934 38 38 29.4934 38 19C38 8.50659 29.4934 0 19 0C8.50659 0 0 8.50659 0 19C0 29.4934 8.50659 38 19 38Z" fill="#3DDC84"/>
<path fill-rule="evenodd" clip-rule="evenodd" d="M24.8664 22C24.5066 22 24.1799 22.1973 23.9727 22.4915C22.8966 24.0194 21.1368 25 19.1848 25C15.984 25 13.2998 22.3634 13.2998 19C13.2998 15.6366 15.984 13 19.1848 13C21.1368 13 22.8966 13.9806 23.9727 15.5085C24.1799 15.8027 24.5066 16 24.8664 16H28.3418C29.0039 16 29.483 15.3664 29.2296 14.7547C27.5857 10.7873 23.7074 8 19.1848 8C13.1732 8 8.2998 12.9249 8.2998 19C8.2998 25.0751 13.1732 30 19.1848 30C23.7074 30 27.5857 27.2127 29.2296 23.2453C29.483 22.6336 29.0039 22 28.3418 22H24.8664Z" fill="white"/>
</svg>

<svg width="38" height="38" fill="none" xmlns="http://www.w3.org/2000/svg"><path fill-rule="evenodd" clip-rule="evenodd" d="M19 38c10.493 0 19-8.507 19-19S29.493 0 19 0 0 8.507 0 19s8.507 19 19 19Z" fill="#3DDC84"/><path fill-rule="evenodd" clip-rule="evenodd" d="M24.866 22c-.36 0-.686.197-.893.491C22.897 24.02 21.137 25 19.185 25c-3.201 0-5.885-2.637-5.885-6s2.684-6 5.885-6c1.952 0 3.712.98 4.788 2.508.207.295.534.492.893.492h3.476c.662 0 1.141-.634.888-1.245C27.586 10.787 23.707 8 19.185 8 13.173 8 8.3 12.925 8.3 19s4.873 11 10.885 11c4.522 0 8.4-2.787 10.045-6.755.253-.611-.226-1.245-.888-1.245h-3.476Z" fill="#fff"/></svg>
